!!!COM: Murjan, Ahmad
!!!CDT: 1905-1974
!!!OTL: National Anthem, Sudan
!!!ENC: Davis, Matthew J.
!!Vocal Line Only
**kern
*clefG2
*k[b-e-a-]
*E-:
*M4/4
=1-
1r
=2
8B-
16c
16d
8e-
16f
16f#
2g
=3
4a-
8.g
16g
4f
4r
=4
8.b-
16cc
16b-
8.cc
4b-
8.b-
16cc
=5
4ee-
8.cc
16g
4b-
4r
=6
8r
16b-
16b-
8cc
8b-
4g
4r
=7
4b-
8.g
16f
4e-
4r
=8
8.b-
16cc
8b-
8ee-
4cc
8r
8a-
=9
4g
8.f
16e-
4e-
4r
=10
8.ee-
16ee-
4dd
8.cc
16cc
4b-
=11
8.b-
16dd
8cc
8b-
8.ee-
16ee-
4ee-
=12
8cc
8cc
4b-
4ee-
8.cc
16b-
=13
8b-
8r
4r
2r
=14
8.cc
16b-
8g
8e-
4g
4r
=15
8.g
16e-
8.g
16f
4e-
4r
=16
8.b-
16b-
8.b-
16cc
4b-
8r
8b-
=17
8.ee-
16cc
8b-
8g
4e-
4r
==|!
*-
